X: 36
T: VALSE BOURBONNAISE
C: Yves BELOTTEAU
M: 3/4
L: 1/8
Q:1/4=88
K:G 
|:d3/2c/2B D/2E/2G/2A/2B|d3/2c/2B B/2c/2B/2A/2G|d3/2c/2B gfe|dBc c/2d/2c
/2B/2A|!
A3/2G/2F F/2G/2A/2B/2c|c3/2B/2A A/2B/2A/2G/2F|c3/2B/2A fed|cAB B/2c/2B/2
A/2G:|!
ABc|d3/2e/2f edg|d3/2c/2B AGF|F/2G/2A/2B/2c/2B/2 c/2d/2e/2f/2g|
f3/2e/2d dBc|!d3/2e/2f edg|d3/2c/2B AGF|F/2G/2A/2B/2c/2B/2 c/2d/2e/2f/2g
|g/2a/2g/2f/2g |
